X: 6088
T: Captain Campbell
R: strathspey
M: 4/4
K: Aminor
EAAB c2BA|GBdc B/G3/2GD|EAAB cBce|3(dcB) gB B/A3/2 A2:|
Aaag abge|dBgd BAGB|Aaag abge|dBgB B/A3/2AG|
Aaag abge|dBgd BAGB|A^GAB cBcd|3(efg) dg B/A3/2 A2||

